X: 305847
M: 2/4
L: 1/16
K: D
fe |\
.d2.F2 .B2.A2 | D3E F2ED | E2e2e2d2 | B2e2e2 fe |\
.d2.F2 .B2.A2 | D3E F2ED | F2A2 Bdce | d2f2d2 H|]


